svgs/regular/dice-four.svg

<svg xmlns="http://www.w3.org/2000/svg" viewBox="0 0 448 512"><!-- Font Awesome Pro 5.15.3 by @fontawesome - https://fontawesome.com License - https://fontawesome.com/license (Commercial License) --><path d="M384 32H64C28.65 32 0 60.65 0 96v320c0 35.35 28.65 64 64 64h320c35.35 0 64-28.65 64-64V96c0-35.35-28.65-64-64-64zm16 384c0 8.82-7.18 16-16 16H64c-8.82 0-16-7.18-16-16V96c0-8.82 7.18-16 16-16h320c8.82 0 16 7.18 16 16v320zM128 128c-17.67 0-32 14.33-32 32s14.33 32 32 32 32-14.33 32-32-14.33-32-32-32zm0 192c-17.67 0-32 14.33-32 32s14.33 32 32 32 32-14.33 32-32-14.33-32-32-32zm192-192c-17.67 0-32 14.33-32 32s14.33 32 32 32 32-14.33 32-32-14.33-32-32-32zm0 192c-17.67 0-32 14.33-32 32s14.33 32 32 32 32-14.33 32-32-14.33-32-32-32z"/></svg>

<svg xmlns="http://www.w3.org/2000/svg" viewBox="0 0 448 512"><!--! Font Awesome Pro 6.0.0-alpha3 by @fontawesome - https://fontawesome.com License - https://fontawesome.com/license (Commercial License) --><path d="M384 32H64C28.63 32 0 60.63 0 96v320c0 35.38 28.62 64 64 64h320c35.38 0 64-28.62 64-64V96C448 60.63 419.4 32 384 32zM400 416c0 8.875-7.125 16-16 16H64c-8.875 0-16-7.125-16-16V96c0-8.875 7.125-16 16-16h320c8.875 0 16 7.125 16 16V416zM128 128C110.4 128 96 142.4 96 160s14.38 32 32 32s32-14.38 32-32S145.6 128 128 128zM320 320c-17.62 0-32 14.38-32 32s14.38 32 32 32s32-14.38 32-32S337.6 320 320 320zM320 128c-17.62 0-32 14.38-32 32s14.38 32 32 32s32-14.38 32-32S337.6 128 320 128zM128 320c-17.62 0-32 14.38-32 32s14.38 32 32 32s32-14.38 32-32S145.6 320 128 320z"/></svg>
